X: 1
T: Cochrane
M: 4/4
L: 1/8
R: reel
K: Emin
E|:EBBA B2Bd| edBB AGFD| EBBA B2Bd| cBAcBABc|
BBBA B2Bd| edBe dBAB| cBAc G2AG| FDGF E3E:|
|:eeed e2Bd| ABAB c2Bc| BGGA FFGE| GFFG ABBA|
edBe dAAB| c2B2c2BA| FcBF cBGF| GFED E3E:|
